X:731
M:C|
L:1/8
K:G
g2 gb afge|d<B g>B A/A/A A2|g2gb afge|d<B g>B G/G/G G2|
g2 gb afge|d<B g<B A/A/A A2 gbab gaeg|d<Bg>B G/G/G G2||

